img/ingridients-icons/sugar-substitute.svg

<svg width="24" height="25" viewBox="0 0 24 25" fill="none" xmlns="http://www.w3.org/2000/svg">
<path d="M0.18761 21.5505C3.66777 23.7268 3.43795 23.6142 3.60211 23.6142C3.76627 23.6142 3.5599 23.708 6.80555 21.6865C10.0559 23.7174 9.84952 23.6142 10.009 23.6142C10.1685 23.6142 10.009 23.6846 12.6261 22.0477C12.8138 21.9304 12.87 21.6818 12.7528 21.4942C12.6355 21.3066 12.3869 21.2503 12.1993 21.3676L10.0043 22.7418L7.20422 20.9924V18.2345L8.66758 17.3199C8.85519 17.2027 8.91147 16.9541 8.79422 16.7665C8.67696 16.5789 8.42838 16.5226 8.24077 16.6398L6.80555 17.5404L4.00547 15.7909V13.033L6.80555 11.2836C8.3674 12.2591 8.26422 12.2122 8.37678 12.231C8.56439 12.2638 8.752 12.1653 8.82236 11.9871C8.89271 11.8089 8.82705 11.6072 8.66758 11.504L7.20422 10.5894V7.83154L10.0043 6.08208L12.8044 7.83154V8.40844C12.8044 8.62888 12.9826 8.80711 13.203 8.80711C13.4235 8.80711 13.6017 8.62888 13.6017 8.40844V7.83154L16.4018 6.08208L19.2019 7.83154V10.8098C19.2019 11.0303 19.3801 11.2085 19.6005 11.2085C19.821 11.2085 19.9992 11.0303 19.9992 10.8098V7.60641C19.9992 7.47039 19.9289 7.33907 19.8116 7.26871L16.7958 5.38323V2.40023C16.7958 2.26422 16.7254 2.13289 16.6082 2.06254L13.4188 0.0598007C13.2875 -0.0199336 13.1233 -0.0199336 12.9967 0.0598007L10.009 1.92652L7.01661 0.0598007C6.88528 -0.0199336 6.72113 -0.0199336 6.59449 0.0598007L3.39105 2.06254C3.27379 2.13758 3.20344 2.26422 3.20344 2.40023V5.37854L0.18761 7.26402C0.0703537 7.33907 0 7.4657 0 7.60172V10.8052C0 10.9412 0.0703537 11.0725 0.18761 11.1429L3.20344 13.0283V15.7862L0.18761 17.6717C0.0703537 17.7467 0 17.8734 0 18.0094V21.2128C0 21.3488 0.0703537 21.4755 0.18761 21.5505ZM13.2077 0.871214L16.0078 2.62068V5.37854L13.2077 7.12801L10.4077 5.37854V2.62068L13.2077 0.871214ZM6.80555 0.871214L9.60563 2.62068V5.37854L6.80555 7.12801L4.00547 5.37854V2.62068L6.80555 0.871214ZM0.802032 7.82685L3.60211 6.07739L6.40219 7.82685V10.5847L3.60211 12.3342L0.802032 10.5847V7.82685ZM0.802032 18.2298L3.60211 16.4804L6.40219 18.2298V20.9877L3.60211 22.7372L0.802032 20.9877V18.2298Z" fill="black"/>
<path d="M18.4092 12.0105V11.6072C18.4092 10.9083 18.0997 10.2423 17.5697 9.78265L17.9684 8.98062C18.0668 8.78363 17.9824 8.54443 17.7854 8.44593C17.5884 8.34744 17.3492 8.42717 17.2507 8.62416L16.8802 9.36991C16.3221 9.14947 15.6983 9.14947 15.1354 9.36991L14.7649 8.62416C14.7039 8.49283 14.5726 8.40841 14.4319 8.39903C14.2865 8.38965 14.1505 8.46 14.0708 8.57726C13.991 8.6992 13.9816 8.84929 14.0473 8.98062L14.446 9.78265C13.9113 10.2376 13.6017 10.9036 13.6017 11.6072V12.0105C13.2359 12.0058 12.8419 12.0058 12.401 12.0058C10.2763 12.0058 7.99689 12.972 7.99689 14.4072C7.99689 16.1332 11.2472 17.0385 12.8654 16.7664C12.8278 17.0854 12.7997 17.5216 12.7997 17.8124C12.7997 20.6124 14.0004 22.8497 15.5998 23.1733V23.6189C15.5998 23.8393 15.778 24.0176 15.9985 24.0176C16.2189 24.0176 16.3971 23.8393 16.3971 23.6189V23.1686C17.9965 22.845 19.1972 20.6077 19.1972 17.8077C19.1972 17.5216 19.1691 17.0807 19.1315 16.7664C20.7684 17.0385 24 16.1239 24 14.4072C24 12.972 21.7252 12.0058 19.5959 12.0058C19.1925 12.0058 18.7845 12.0058 18.4092 12.0105ZM14.4085 11.6072C14.4085 10.7207 15.1261 10.0078 16.0078 10.0078C16.8943 10.0078 17.6072 10.7254 17.6072 11.6072V12.0293C17.0678 12.0199 16.5238 12.0996 16.0078 12.2591C15.4919 12.0903 14.9478 12.0152 14.4038 12.0293V11.6072H14.4085ZM16.0125 14.1587C16.2001 14.5339 16.43 14.8856 16.702 15.2046H15.3184C15.5857 14.8856 15.8202 14.5339 16.0125 14.1587ZM8.80361 14.4072C8.80361 13.6849 10.464 12.8079 12.4057 12.8079C13.2078 12.8079 15.0979 12.7938 15.5951 12.9533C15.4591 13.9148 14.0614 16.0113 12.4057 16.0113C10.4686 16.0066 8.80361 15.1295 8.80361 14.4072ZM14.4929 16.0066H17.5181C17.762 16.1989 18.0246 16.3631 18.3014 16.4991C18.3154 16.6023 18.3295 16.7055 18.3436 16.8086H15.6092C15.3887 16.8086 15.2105 16.9869 15.2105 17.2073C15.2105 17.4278 15.3887 17.606 15.6092 17.606H18.3999C18.4186 17.8733 18.4139 18.1407 18.3858 18.408H13.6299C13.6017 18.1407 13.597 17.8733 13.6158 17.606H14.0051C14.2255 17.606 14.4038 17.4278 14.4038 17.2073C14.4038 16.9869 14.2255 16.8086 14.0051 16.8086H13.6721C13.6862 16.7008 13.7002 16.5976 13.7143 16.4897C13.9957 16.3584 14.2537 16.1989 14.4929 16.0066ZM14.2068 20.8094H16.0078C16.2283 20.8094 16.4065 20.6312 16.4065 20.4108C16.4065 20.1903 16.2283 20.0121 16.0078 20.0121H13.9113C13.8362 19.7494 13.7753 19.4821 13.7284 19.21H18.292C18.2451 19.4821 18.1841 19.7494 18.1091 20.0121H17.6119C17.3915 20.0121 17.2132 20.1903 17.2132 20.4108C17.2132 20.6312 17.3915 20.8094 17.6119 20.8094H17.8136C16.838 22.9435 15.1823 22.9435 14.2068 20.8094ZM23.2121 14.4072C23.2121 15.4016 20.2384 16.4053 18.8126 15.8518C17.6213 15.289 16.7442 14.229 16.4206 12.9533C16.9975 12.7797 18.7282 12.8079 19.6099 12.8032C21.5517 12.8079 23.2121 13.6849 23.2121 14.4072Z" fill="black"/>
</svg>

<svg width="24" height="25" fill="none" xmlns="http://www.w3.org/2000/svg"><path d="M.188 21.55c3.48 2.177 3.25 2.064 3.414 2.064.164 0-.042.094 3.204-1.928 3.25 2.031 3.044 1.928 3.203 1.928.16 0 0 .07 2.617-1.566a.402.402 0 00-.427-.68l-2.195 1.374-2.8-1.75v-2.758l1.464-.914a.402.402 0 00-.427-.68l-1.435.9-2.8-1.75v-2.757l2.8-1.75c1.561.976 1.458.93 1.57.948a.402.402 0 00.446-.244.4.4 0 00-.154-.483l-1.464-.915V7.832l2.8-1.75 2.8 1.75v.576a.398.398 0 10.798 0v-.576l2.8-1.75 2.8 1.75v2.978a.398.398 0 10.797 0V7.606a.395.395 0 00-.187-.337l-3.016-1.886V2.4a.395.395 0 00-.188-.337L13.418.06a.402.402 0 00-.421 0l-2.988 1.867L7.017.06a.402.402 0 00-.423 0L3.391 2.063a.401.401 0 00-.188.337v2.98L.188 7.264A.401.401 0 000 7.602v3.203c0 .136.07.268.188.338l3.015 1.885v2.758L.188 17.672a.401.401 0 00-.188.337v3.204c0 .136.07.262.188.337zM13.208.872l2.8 1.75V5.38l-2.8 1.749-2.8-1.75V2.622l2.8-1.75zm-6.402 0l2.8 1.75V5.38l-2.8 1.749-2.8-1.75V2.622l2.8-1.75zM.802 7.827l2.8-1.75 2.8 1.75v2.758l-2.8 1.75-2.8-1.75V7.827zm0 10.403l2.8-1.75 2.8 1.75v2.758l-2.8 1.75-2.8-1.75V18.23z" fill="#000"/><path d="M18.41 12.01v-.403a2.42 2.42 0 00-.84-1.824l.398-.802a.4.4 0 00-.717-.357l-.37.746a2.384 2.384 0 00-1.746 0l-.37-.746a.397.397 0 00-.333-.225.4.4 0 00-.385.582l.399.802a2.395 2.395 0 00-.844 1.824v.404c-.366-.005-.76-.005-1.201-.005-2.125 0-4.404.966-4.404 2.401 0 1.726 3.25 2.631 4.868 2.36-.037.318-.065.755-.065 1.045 0 2.8 1.2 5.038 2.8 5.361v.446a.398.398 0 10.797 0v-.45c1.6-.324 2.8-2.561 2.8-5.361 0-.286-.028-.727-.066-1.042 1.637.273 4.869-.642 4.869-2.359 0-1.435-2.275-2.401-4.404-2.401-.404 0-.811 0-1.187.005zm-4.002-.403a1.598 1.598 0 113.2 0v.422c-.54-.01-1.084.07-1.6.23a4.765 4.765 0 00-1.604-.23v-.422h.005zm1.604 2.552c.188.375.418.727.69 1.046h-1.384a5.63 5.63 0 00.694-1.046zm-7.208.248c0-.722 1.66-1.6 3.602-1.6.802 0 2.692-.013 3.19.146-.137.962-1.535 3.058-3.19 3.058-1.937-.004-3.602-.881-3.602-1.604zm5.689 1.6h3.025c.244.192.507.356.783.492l.043.31h-2.735a.398.398 0 100 .797h2.79c.02.267.015.535-.013.802H13.63a4.573 4.573 0 01-.014-.802h.39a.398.398 0 100-.797h-.334l.042-.32c.282-.13.54-.29.779-.482zm-.286 4.802h1.8a.398.398 0 100-.797h-2.096a7.631 7.631 0 01-.183-.802h4.564c-.047.272-.108.54-.183.802h-.497a.398.398 0 100 .797h.202c-.976 2.134-2.632 2.134-3.607 0zm9.005-6.402c0 .995-2.974 1.998-4.4 1.445a4.403 4.403 0 01-2.391-2.899c.576-.173 2.307-.145 3.189-.15 1.942.005 3.602.882 3.602 1.604z" fill="#000"/></svg>
